X:25
T:Life Let Us Cherrish. WCa.25
M:6/8
L:1/8
Q:3/8=100
S:Wm. Calvert MS, 1812, Leyburn, Yorks.
R:.air
O:England
A:North Yorkshire
N:There is a pause written directly over the double bar between the A and
N:B music. ..CGP…
Z:vmp.Chris Partington, May 2003
K:G major
B3cBc|(d2g)g2z|G3(AG)A|(BcB)A2z|!
B2B (cBc)|d2gg2z|B3AGA|G3″^Fine”G2H:|!
|:d|d2c (ABc)|d2BG2d|d2c (ABc)|d2BG2d|!
e2cg2g|d2Bg2d|ded dcB|B3″^DC”A2:|

